src/status/16/koi_tray.svg

<svg id="svg184" version="1.1" viewBox="0 0 16 16" xmlns="http://www.w3.org/2000/svg">
    <path id="path447" d="m4.495065 11.504134-3.495065-3.495865 3.503938-3.504135 3.503938-3.504134 3.496063 3.496258 3.496061 3.496257-3.504935 3.503743-3.504936 3.503742zm6.972722-0.0928 3.430477-3.413838-1.105123-1.105185-2.892574 2.892574-2.892574 2.892572-1.189116-1.188785-1.189116-1.188786 2.315797-2.316128 2.315797-2.316129-1.11772-1.118205-1.11772-1.118206-2.866294 2.866268-2.866293 2.866269 2.830654 2.83059c1.55686 1.556826 2.849256 2.830644 2.87199 2.830709 0.02274 7.1e-5 1.585052-1.53611 3.471815-3.41372zm-3.859823-5.345091-0.380955-0.382161 0.390434-0.389245 0.390433-0.389245 0.390434 0.389245 0.390432 0.389245-0.380954 0.382161c-0.209525 0.210189-0.389485 0.382161-0.399912 0.382161-0.01043 0-0.190387-0.171972-0.399912-0.382161zm0.825839 4.588277 0.371421-0.37271-0.389399-0.390631-0.3894-0.390633-0.390405 0.390429-0.390407 0.390427 0.371625 0.372914c0.204393 0.205103 0.388166 0.372914 0.408384 0.372914 0.02022 0 0.2039-0.167719 0.408181-0.37271z" fill="#fff" stroke-width=".0354938"/>
</svg>

<?xml version="1.0" encoding="UTF-8" standalone="no"?>
<svg
   width="16"
   height="16"
   version="1.1"
   id="svg184"
   sodipodi:docname="koi_tray.svg"
   inkscape:version="1.2 (dc2aedaf03, 2022-05-15)"
   xml:space="preserve"
   xmlns:inkscape="http://www.inkscape.org/namespaces/inkscape"
   xmlns:sodipodi="http://sodipodi.sourceforge.net/DTD/sodipodi-0.dtd"
   xmlns="http://www.w3.org/2000/svg"
   xmlns:svg="http://www.w3.org/2000/svg"><defs
     id="defs188" /><sodipodi:namedview
     id="namedview186"
     pagecolor="#d7d7d7"
     bordercolor="#666666"
     borderopacity="1.0"
     inkscape:showpageshadow="2"
     inkscape:pageopacity="0"
     inkscape:pagecheckerboard="0"
     inkscape:deskcolor="#d1d1d1"
     showgrid="false"
     inkscape:zoom="19.312854"
     inkscape:cx="2.6925073"
     inkscape:cy="11.909167"
     inkscape:window-width="1920"
     inkscape:window-height="1052"
     inkscape:window-x="0"
     inkscape:window-y="28"
     inkscape:window-maximized="1"
     inkscape:current-layer="svg184" /><path
     style="fill:#ffffff;fill-opacity:1;stroke-width:0.0354938"
     d="M 4.495065,11.504134 1,8.008269 4.503938,4.504134 8.007876,1 11.503939,4.496258 15,7.992515 11.495065,11.496258 7.990129,15 Z m 6.972722,-0.0928 L 14.898264,7.997496 14.345703,7.444904 13.793141,6.892311 10.900567,9.784885 8.007993,12.677457 6.818877,11.488672 5.629761,10.299886 7.945558,7.983758 10.261355,5.667629 9.143635,4.549424 8.025915,3.431218 5.159621,6.297486 2.293328,9.163755 l 2.830654,2.83059 c 1.55686,1.556826 2.849256,2.830644 2.87199,2.830709 0.02274,7.1e-5 1.585052,-1.53611 3.471815,-3.41372 z M 7.607964,6.066243 7.227009,5.684082 7.617443,5.294837 8.007876,4.905592 8.39831,5.294837 8.788742,5.684082 8.407788,6.066243 C 8.198263,6.276432 8.018303,6.448404 8.007876,6.448404 c -0.01043,0 -0.190387,-0.171972 -0.399912,-0.382161 z M 8.433803,10.65452 8.805224,10.28181 8.415825,9.891179 8.026425,9.500546 7.63602,9.890975 7.245613,10.281402 7.617238,10.654316 c 0.204393,0.205103 0.388166,0.372914 0.408384,0.372914 0.02022,0 0.2039,-0.167719 0.408181,-0.37271 z"
     id="path447" /></svg>
